src/images/back-arrow.svg

<svg width="26" height="20" viewBox="0 0 26 20" fill="none" xmlns="http://www.w3.org/2000/svg">
<path d="M25.6752 9.99997C25.6752 10.7333 25.0752 11.3333 24.3418 11.3333H4.87516L10.9085 17.4C11.4418 17.9333 11.4418 18.7666 10.9085 19.3C10.6418 19.5666 10.3085 19.7 9.97516 19.7C9.64182 19.7 9.27516 19.5666 9.04183 19.3L0.741831 10.9666C0.208498 10.4333 0.208498 9.59997 0.741831 9.09997L9.04183 0.766634C9.57516 0.233301 10.4085 0.233301 10.9418 0.766634C11.4752 1.29997 11.4752 2.1333 10.9418 2.66664L4.87516 8.66664H24.3418C25.0752 8.66664 25.6752 9.26664 25.6752 9.99997Z" fill="black"/>
</svg>

<?xml version="1.0" encoding="UTF-8" standalone="no"?>
<svg width="26" xmlns="http://www.w3.org/2000/svg" fill="none" viewBox="0 0 26 20" height="20">
 <path d="m25.675 10c0 0.733-0.6 1.333-1.333 1.333h-19.467l6.033 6.067c0.534 0.533 0.534 1.367 0 1.9-0.266 0.267-0.6 0.4-0.9328 0.4-0.3334 0-0.7-0.133-0.9334-0.4l-8.3-8.333c-0.5333-0.534-0.5333-1.367 0.00003-1.867l8.3-8.3334c0.5334-0.5333 1.3662-0.5333 1.9002 0.00003 0.533 0.53337 0.533 1.3667 0 1.9l-6.0668 6h19.467c0.733 0 1.333 0.6 1.333 1.3334z" fill="#000"/>
</svg>
